X:641
%%etbk:tnset id:380,pos:2,rep:3x,ant:
%%etbk:wsite https://thesession.org/tunes/324
%%etbk:pldat 2016-05-29T15:48,2015-06-11T19:05,2015-05-06T16:24
T: Stan Chapman's
Z: Piano Box Version by Martin Fleischmann
H: Created 2015-03-27 /  Last Modified 2016-05-26
R: jig
M: 6/8
L: 1/8
K: Gmaj
|:D3 DEG|!5!A2!1!A AB!3!d|!4!edg e!3!d!2!B|!3!dBG !2!A!1!G!2!E|
D3 DEG|A3 ABd|edg edB|dBG G3:|
|:!2!d3 dBd|!3!e3 efg|!2!d!1!B!2!G !3!A3|BGD Dge|
d3 dBd|e3 efg|dBG A3|1BGG Gge:|2BGG G3||


